website/static/favicon.svg

<?xml version="1.0" encoding="UTF-8"?>
<svg viewBox="0 0 500 443" version="1.1" xmlns="http://www.w3.org/2000/svg" xmlns:xlink="http://www.w3.org/1999/xlink">
    <style>
    path { fill: #5C62B0; }
    @media (prefers-color-scheme: dark) {
        path { fill: #8890e2; }
    }
    </style>
    <g id="Page-1" stroke="none" stroke-width="1" fill="none" fill-rule="evenodd">
        <path d="M237.704918,0 C314.662629,0 377.04918,62.3865513 377.04918,139.344262 L377.04918,139.344262 L377.049,336.352 L442.622951,336.351852 C474.31142,336.351852 500,362.040432 500,393.728901 L500,393.728901 L500,443 L492.453934,443 C474.228663,443 459.358973,428.407236 459.016393,410.185185 L459.016393,410.185185 L459.016393,401.960534 L459.013099,401.553891 C458.795948,388.160675 447.871194,377.37037 434.42623,377.37037 L434.42623,377.37037 L106.557377,377.37037 C47.7073627,377.37037 6.03909994e-15,329.663008 6.03909994e-15,270.812993 L6.03909994e-15,270.812993 L-1.00611761e-14,139.344262 C-1.00611761e-14,62.3865513 62.3865513,5.68434189e-14 139.344262,5.68434189e-14 L139.344262,5.68434189e-14 Z M229.508197,41.0185185 L147.540984,41.0185185 L145.778863,41.0327942 C87.7415928,41.97378 40.9836066,89.3143814 40.9836066,147.575896 L40.9836066,147.575896 L40.9836066,270.778081 L40.9923916,271.862464 C41.5714598,307.577706 70.7041376,336.351852 106.557377,336.351852 L106.557377,336.351852 L270.491803,336.351852 C306.707197,336.351852 336.065574,306.993475 336.065574,270.778081 L336.065574,270.778081 L336.065574,147.575896 L336.051298,145.813774 C335.110312,87.7765047 287.769711,41.0185185 229.508197,41.0185185 L229.508197,41.0185185 Z M147.868852,106.648148 C157.213115,106.648148 164.590164,114.277593 164.590164,123.875926 L164.590164,123.875926 L164.590164,173.836481 L221.393443,115.262037 C228.770492,108.370926 238.852459,107.878704 245.983607,114.523704 L245.983607,114.523704 L245.983607,114.769815 C252.868852,121.168704 252.377049,131.751481 244.754098,138.642593 L244.754098,138.642593 L202.704918,181.958148 L251.639344,251.853704 C257.540984,260.467593 255.819672,271.296481 247.95082,276.464815 C239.344262,281.387037 229.508197,278.679815 223.606557,270.065926 L223.606557,270.065926 L179.590164,205.584815 L164.590164,221.335926 L164.590164,261.698148 C164.590164,271.542593 157.213115,278.925926 147.868852,278.925926 C138.52459,278.925926 131.147541,271.542593 131.147541,261.698148 L131.147541,261.698148 L131.147541,123.875926 C131.147541,114.277593 138.52459,106.648148 147.868852,106.648148 Z" id="Karpenter"></path>
    </g>
</svg>

<?xml version="1.0" encoding="UTF-8" standalone="no"?>
<svg
   xmlns:dc="http://purl.org/dc/elements/1.1/"
   xmlns:cc="http://creativecommons.org/ns#"
   xmlns:rdf="http://www.w3.org/1999/02/22-rdf-syntax-ns#"
   xmlns:svg="http://www.w3.org/2000/svg"
   xmlns="http://www.w3.org/2000/svg"
   xmlns:sodipodi="http://sodipodi.sourceforge.net/DTD/sodipodi-0.dtd"
   xmlns:inkscape="http://www.inkscape.org/namespaces/inkscape"
   viewBox="0 0 500 500"
   version="1.1"
   id="Karpenter">
  <style
     id="style2">
    path { fill: #5C62B0; }
    @media (prefers-color-scheme: dark) {
        path { fill: #8890e2; }
    }
    </style>
  <g
     id="Page-1"
     transform="translate(2.1186441,37.661017)"
     style="fill:none;fill-rule:evenodd;stroke:none;stroke-width:1">
    <path
       d="m 237.70492,0 c 76.95771,0 139.34426,62.386551 139.34426,139.34426 v 0 l -1.8e-4,197.00774 65.57395,-1.5e-4 c 31.68847,0 57.37705,25.68858 57.37705,57.37705 v 0 V 443 h -7.54607 c -18.22527,0 -33.09496,-14.59276 -33.43754,-32.81482 v 0 -8.22465 l -0.003,-0.40664 c -0.21715,-13.39321 -11.14191,-24.18352 -24.58687,-24.18352 v 0 H 106.55738 C 47.707363,377.37037 0,329.66301 0,270.81299 v 0 -131.46873 C 0,62.386551 62.386551,0 139.34426,0 v 0 z m -8.19672,41.018518 h -81.96722 l -1.76212,0.01428 C 87.741593,41.97378 40.983607,89.314381 40.983607,147.5759 v 0 123.20218 l 0.0088,1.08438 c 0.579068,35.71525 29.711746,64.48939 65.564993,64.48939 v 0 h 163.9344 c 36.2154,0 65.57377,-29.35838 65.57377,-65.57377 v 0 -123.20218 l -0.0143,-1.76213 C 335.11031,87.776505 287.76971,41.018518 229.5082,41.018518 Z m -81.63935,65.629632 c 9.34426,0 16.72131,7.62944 16.72131,17.22778 v 0 49.96055 l 56.80328,-58.57444 c 7.37705,-6.89111 17.45902,-7.38334 24.59017,-0.73834 v 0 0.24611 c 6.88524,6.39889 6.39344,16.98167 -1.22951,23.87278 v 0 l -42.04918,43.31556 48.93442,69.89555 c 5.90164,8.61389 4.18033,19.44278 -3.68852,24.61111 -8.60656,4.92223 -18.44262,2.21501 -24.34426,-6.39888 v 0 l -44.0164,-64.48112 -15,15.75112 v 40.36222 c 0,9.84444 -7.37705,17.22778 -16.72131,17.22778 -9.34426,0 -16.72131,-7.38334 -16.72131,-17.22778 v 0 -137.82222 c 0,-9.59834 7.37705,-17.22778 16.72131,-17.22778 z"
       id="Karpenter" />
  </g>
</svg>
